X: 329
T: Hommage \`a Rock Proulx
C: Marcel Messervier 1981
R: reel
Z: 2012 John Chambers <jc:trillian.mit.edu>
B: The Portland Collection v.2 p.87
N: Extra beat between the parts eliminated to get a 32-bar contra-dance tune.
M: C|
L: 1/8
K: G
|:\
"G"g2e2 dBGA | BGAG E2D2 | g3f edBd | "C"egab "D7"aged |
"G"g2e2 dBGA | "G"BGAG E2D2 | "C"DEGA BcBA |"D7"FADF [1 "G"G4 :|[2 "G"G2"D7"A2 ||
|:\
"G"B4- BABc | B2A2 GFGB | e2d2- d^cde | d2B2 A2G2 |\
[1 "D7"FADF ADFA | d2c2 B2A2 |
"G"GBDG BDGB | "D7"d2D2 G2A2 :|\
[2 "D7"F2z2 f3e | d2c2 B2A2 | "G"G2FG "D7"ABcd | "G"g2gg g4 |]

